app/img/markweber.svg

<svg width="85" height="21" viewBox="0 0 85 21" fill="none" xmlns="http://www.w3.org/2000/svg">
<g clip-path="url(#clip0)">
<path fill-rule="evenodd" clip-rule="evenodd" d="M45.699 5.08624C45.9034 5.29761 47.7434 10.3331 47.9358 10.9548C48.1274 11.6209 48.398 12.2598 48.7415 12.8571C49.3789 13.0063 49.4391 12.3473 49.6315 11.8251C50.6777 9.00276 52.2652 4.88731 53.0589 2.11466C53.6121 0.771856 53.6602 0.411287 52.662 0.411287C51.6639 0.411287 51.7721 1.08269 51.3753 1.95303C51.0265 3.60667 49.6796 7.10045 49.1865 8.70436C49.1865 8.91573 49.1865 8.91573 48.934 8.91573C48.1042 6.52852 47.1421 3.60667 46.2041 1.24432C45.9515 0.784289 45.5065 0.684822 45.2059 1.71679C44.7008 3.358 44.0033 5.31004 43.4621 6.90152C43.4621 6.90152 42.8127 8.91573 42.7646 9.01519C42.4207 8.44349 42.1689 7.81781 42.019 7.16262C41.2734 5.26031 40.624 3.2088 39.9866 1.30649C39.8303 0.945923 39.8303 0.734556 39.4815 0.523188C39.1319 0.389258 38.754 0.354905 38.3871 0.423721C37.401 0.585355 38.0384 1.40596 38.2428 2.0152C39.4454 5.35978 40.7803 9.37576 42.1152 12.5587C42.1465 12.6376 42.1973 12.7065 42.2625 12.7586C42.3277 12.8108 42.4051 12.8442 42.4868 12.8555C42.5685 12.8669 42.6516 12.8557 42.7279 12.8233C42.8041 12.7908 42.8707 12.7382 42.9209 12.6706C43.1134 12.2852 45.5547 5.08624 45.699 5.08624Z" fill="#221F20"/>
<path fill-rule="evenodd" clip-rule="evenodd" d="M0.193169 0.62248C0.143457 0.829604 0.160343 1.04783 0.241273 1.24415C0.445716 2.11449 -0.155586 12.0363 0.000752291 12.4342C0.487536 12.6605 1.0333 12.713 1.55211 12.5834C1.79263 12.3223 1.69642 12.0736 1.69642 11.6633C1.69642 9.91022 1.84074 8.21928 1.84074 6.41644C1.90087 5.74504 1.94897 5.285 1.94897 4.8747C1.94897 4.4644 1.94897 4.51413 2.04518 4.41467C2.14139 4.3152 3.7168 7.15001 3.87314 7.46085C4.17379 8.07008 4.76306 9.00259 5.15992 9.72372C5.76122 10.8552 6.06187 10.0843 6.20619 9.82319C6.55494 9.36316 9.24877 4.47683 9.44119 4.37737C9.62158 4.5763 9.62158 9.46262 9.62158 9.82319C9.62158 12.4964 9.32093 12.7575 10.9565 12.6456C11.4616 12.6456 11.5097 12.2353 11.4616 11.7752C11.4616 10.9049 11.4616 9.92266 11.4616 9.05232C11.3293 6.83918 11.2331 4.3152 11.2331 2.11449C11.2331 1.85339 11.3293 0.871148 11.3293 0.721948C11.182 0.550422 10.9826 0.435981 10.7639 0.397547C10.5453 0.359113 10.3205 0.398989 10.1267 0.51058C9.77792 0.721948 9.68171 1.18198 9.42916 1.49282C8.41898 3.34539 7.06003 5.44664 6.10998 7.19975C5.76122 7.82142 5.76122 7.61005 5.46057 7.19975C4.81117 6.21751 3.96934 4.52657 3.38007 3.54433L2.17746 1.49282C2.0103 1.1363 1.79577 0.805694 1.54008 0.51058C1.20336 0.261912 0.541924 0.460846 0.193169 0.62248Z" fill="#221F20"/>
<path fill-rule="evenodd" clip-rule="evenodd" d="M63.652 6.37938C64.0777 6.02031 64.5826 5.77565 65.1218 5.66719C65.6611 5.55872 66.2179 5.58982 66.7427 5.75771C68.3302 6.47885 68.5346 8.90336 67.8371 10.0845C67.54 10.5449 67.1121 10.8985 66.6123 11.0967C66.1126 11.2949 65.5657 11.3279 65.047 11.1911C64.5446 11.0886 64.0691 10.8767 63.652 10.5694V6.37938ZM63.652 4.62627C63.577 3.27214 63.577 1.91468 63.652 0.560553C63.652 0.00105058 63.4596 -0.0984165 62.9545 0.100518C61.7519 0.62272 61.7519 0.411353 61.9203 1.54279C62.0165 2.11473 61.9203 8.74172 61.9203 9.67423C61.9203 11.5144 61.6677 11.9371 64.2533 12.708C64.9896 12.8676 65.7494 12.8717 66.4872 12.72C67.225 12.5683 67.9255 12.2639 68.5466 11.8252C71.0841 9.67423 70.3866 3.60673 65.7566 4.06677C65.353 4.08935 64.9513 4.13919 64.554 4.21597C64.3976 4.2657 63.8084 4.62627 63.7362 4.62627H63.652Z" fill="#221F20"/>
<path fill-rule="evenodd" clip-rule="evenodd" d="M28.5846 12.5461C28.7726 11.8977 28.8259 11.2155 28.7409 10.5443C28.6917 9.84065 28.6917 9.13425 28.7409 8.43061C28.8852 8.43061 29.0415 8.69171 29.3422 9.00254C29.6428 9.31338 32.1202 11.9866 32.5171 12.285C32.6555 12.4182 32.8224 12.5158 33.0042 12.5698C33.186 12.6238 33.3776 12.6327 33.5633 12.5958C33.9121 12.5958 34.4653 12.5958 34.6577 12.3471C34.6577 11.9866 33.9602 11.4146 33.6595 11.1038C33.3589 10.793 32.9741 10.3951 32.6253 9.97235C31.8604 9.27636 31.145 8.52426 30.4847 7.72191C30.4847 7.61 33.2146 5.23523 33.7197 4.78762C33.9121 4.57626 34.1165 4.52652 34.0684 4.21569C33.4494 4.01828 32.7873 4.01828 32.1683 4.21569C31.9278 4.32759 30.2802 5.86933 29.8353 6.27963C29.6909 6.42883 28.8371 7.36134 28.7409 7.3116C28.5966 6.83913 28.7409 0.41107 28.6447 0.0505016C28.5485 -0.310067 26.8528 0.261869 26.9009 0.883539C26.9952 1.32033 27.0436 1.76638 27.0452 2.21391V11.1038C27.0452 11.4146 26.949 12.3471 27.1535 12.4963C27.6214 12.62 28.1097 12.6369 28.5846 12.5461Z" fill="#221F20"/>
<path fill-rule="evenodd" clip-rule="evenodd" d="M15.6308 8.33125C16.184 8.18205 18.0361 8.64209 18.1202 9.15186C18.1683 9.70195 18.1683 10.2554 18.1202 10.8055C17.7715 11.2655 15.3783 12.1856 14.5846 10.5444C14.4776 10.3113 14.4221 10.0564 14.4221 9.79839C14.4221 9.54035 14.4776 9.28553 14.5846 9.05239C14.7001 8.86282 14.8529 8.7006 15.0332 8.57633C15.2135 8.45206 15.4172 8.36855 15.6308 8.33125ZM18.1683 7.70958C17.701 7.38952 17.1784 7.16576 16.629 7.05061C15.9444 6.97224 15.2517 7.02279 14.5846 7.19981C14.0228 7.36615 13.5275 7.71446 13.1715 8.1935C12.8155 8.67255 12.6176 9.25706 12.6068 9.86108C12.596 10.4651 12.773 11.0568 13.1117 11.5491C13.4504 12.0413 13.9329 12.4083 14.4884 12.5959C15.4396 12.9313 16.4715 12.9313 17.4227 12.5959C17.6272 12.4964 18.024 12.2353 18.1683 12.1856C18.3127 12.1359 18.3728 12.5462 18.5652 12.6456C18.7576 12.7451 19.6596 12.6456 19.9121 12.397C20.1647 12.1483 20.2128 12.1856 20.0564 11.825C19.8237 11.3493 19.7397 10.8106 19.8159 10.2833V6.57814C19.8788 6.05352 19.7549 5.52316 19.4672 5.08614C18.5171 3.13409 12.7927 3.90496 13.2497 5.55861C13.7067 7.21225 14.4523 4.98667 16.9778 5.2975C18.3367 5.44671 18.1924 6.78951 18.1924 7.70958H18.1683Z" fill="#221F20"/>
<path fill-rule="evenodd" clip-rule="evenodd" d="M77.0383 7.46112H72.9134C72.9687 6.9506 73.194 6.47587 73.5508 6.11831C73.9402 5.76524 74.4295 5.55156 74.9458 5.50908C75.2147 5.48611 75.4854 5.51941 75.7416 5.607C75.9978 5.69458 76.2343 5.83466 76.437 6.01885C76.641 6.1924 76.8021 6.41382 76.9066 6.66468C77.0112 6.91554 77.0564 7.18859 77.0383 7.46112ZM72.8051 8.79149C73.1058 8.64229 77.6156 8.79149 78.4333 8.79149C79.2511 8.79149 78.8783 6.01885 77.3871 4.88741C76.7778 4.41783 76.0526 4.13596 75.295 4.07435C74.5375 4.01274 73.7785 4.1739 73.1057 4.53922C72.433 4.90454 71.8739 5.45912 71.493 6.13894C71.1121 6.81876 70.925 7.59609 70.9531 8.38119C70.9246 9.14372 71.0962 9.90002 71.4498 10.5699C71.8034 11.2397 72.3257 11.7981 72.9615 12.1858C74.2964 13.1183 77.8801 13.0686 78.3251 11.6263C78.8783 9.77373 77.5795 10.8057 77.1225 11.0046C76.7382 11.1675 76.3331 11.2722 75.9199 11.3155C73.2621 11.6263 72.6127 9.20179 72.8051 8.79149Z" fill="#221F20"/>
<path fill-rule="evenodd" clip-rule="evenodd" d="M54.755 7.46057C54.7971 6.92952 55.0307 6.43421 55.4093 6.07271C55.7879 5.7112 56.284 5.50985 56.7994 5.50852C57.8336 5.39662 59.0362 6.32913 58.8318 7.46057H54.755ZM54.5505 8.70391C54.8031 8.70391 59.4812 8.70391 60.1306 8.70391C60.78 8.70391 60.6718 8.2936 60.6237 7.78383C60.5885 7.09347 60.3805 6.42439 60.0201 5.84211C59.6596 5.25984 59.1591 4.78435 58.5674 4.46222C57.9758 4.14009 57.3134 3.98236 56.6451 4.00449C55.9767 4.02662 55.3254 4.22784 54.755 4.58845C54.1135 4.98026 53.5889 5.54731 53.2388 6.22729C52.8888 6.90726 52.7268 7.67385 52.7707 8.4428C52.7196 9.20188 52.8849 9.95977 53.2462 10.6227C53.6074 11.2857 54.1487 11.8246 54.8031 12.1728C56.4987 13.2545 59.8299 12.7945 60.1306 11.5636C60.1306 11.203 60.3711 10.3202 59.8299 10.5316C59.1762 10.9137 58.4646 11.1785 57.7254 11.3149C57.3313 11.3694 56.9307 11.3424 56.5467 11.2357C56.1628 11.129 55.8031 10.9446 55.4885 10.6932C55.0556 10.3327 54.3581 9.25097 54.5505 8.70391Z" fill="#221F20"/>
<path fill-rule="evenodd" clip-rule="evenodd" d="M81.5606 12.5952C81.8613 12.2844 81.8132 12.1352 81.8132 11.6752V10.4318C81.8132 8.79061 81.5125 6.06769 83.3525 5.65739C83.7494 5.55793 83.8456 5.90606 84.3507 5.80659C84.6485 5.53031 84.8722 5.1791 85.0001 4.78705C85.0001 4.00375 83.7975 3.85455 82.7031 4.36432C82.3544 4.52595 82.0657 5.08546 81.8132 5.13519C81.8132 4.67515 81.9094 4.47622 81.6087 4.06592C81.2233 4.10413 80.8501 4.22707 80.5144 4.42649C80.0213 4.67515 79.9251 4.67515 80.0213 5.29682C80.1175 5.91849 80.0213 10.1831 80.0213 11.2027C80.0694 12.7569 80.0694 12.7071 81.5606 12.5952Z" fill="#221F20"/>
<path fill-rule="evenodd" clip-rule="evenodd" d="M22.9216 12.546V12.4465C23.0612 11.1837 23.0974 9.91096 23.0299 8.64187C23.0299 7.65963 23.2704 6.06816 24.3167 5.75732C25.1585 5.44649 25.2066 6.26709 25.7598 5.75732C27.0466 4.36478 25.3148 3.80528 24.2686 4.26532C23.2223 4.72535 23.3666 5.08592 23.066 5.18539C23.0418 4.98308 23.0418 4.77846 23.066 4.57615C23.066 4.31505 22.9577 4.31505 22.8615 4.16585C22.4759 4.1626 22.097 4.27022 21.7671 4.47668C21.2741 4.67562 21.1177 4.72535 21.2741 5.34702C21.3799 6.30023 21.412 7.26064 21.3703 8.21913V11.0539C21.4785 12.5957 21.2741 12.7076 22.9216 12.546Z" fill="#221F20"/>
<path fill-rule="evenodd" clip-rule="evenodd" d="M45.3503 14.1997C43.3651 14.4529 41.413 14.9324 39.5297 15.6295C38.9404 15.8906 38.3271 16.0398 37.7378 16.3009C36.5352 16.7609 35.4048 17.1712 34.2142 17.6437C33.8174 17.7929 30.9792 18.6633 30.4861 18.7752C28.0809 19.3844 24.4731 20.1055 22.1762 19.0238C21.0818 18.4643 20.9736 20.205 23.4629 20.8267C24.9187 21.0903 26.4126 21.0224 27.8404 20.6277C29.043 20.3666 30.4861 19.9066 31.6286 19.546C32.7711 19.1855 34.118 18.7752 35.3567 18.4146C35.6573 18.3027 35.8979 18.2032 36.2466 18.1038L38.0866 17.5318C38.4354 17.4323 38.6879 17.2831 38.9885 17.1712L40.8887 16.7112C41.2374 16.6117 41.49 16.5123 41.7906 16.4004C44.3085 15.845 46.8767 15.5699 49.4512 15.5798C50.0886 15.5798 51.0386 15.7414 51.688 15.8409C52.8906 15.9901 52.6261 15.3311 51.8323 14.9084C49.7686 14.0909 47.5338 13.8465 45.3503 14.1997Z" fill="#F9CC46"/>
</g>
<defs>
<clipPath id="clip0">
<rect width="85" height="21" fill="white" transform="translate(0 0.000488281)"/>
</clipPath>
</defs>
</svg>

<svg width="85" height="21" fill="none" xmlns="http://www.w3.org/2000/svg"><g clip-path="url(#clip0)" fill-rule="evenodd" clip-rule="evenodd"><path d="M45.699 5.086c.204.212 2.044 5.247 2.237 5.869.191.666.462 1.305.806 1.902.637.15.697-.51.89-1.032 1.046-2.822 2.633-6.938 3.427-9.71C53.612.772 53.66.41 52.662.41s-.89.672-1.287 1.542c-.349 1.654-1.695 5.147-2.188 6.751 0 .212 0 .212-.253.212-.83-2.387-1.792-5.31-2.73-7.672-.252-.46-.697-.56-.998.473-.505 1.641-1.203 3.593-1.744 5.185 0 0-.65 2.014-.697 2.113a6.335 6.335 0 01-.746-1.852c-.746-1.903-1.395-3.954-2.032-5.857-.157-.36-.157-.571-.506-.783a2.016 2.016 0 00-1.094-.1c-.986.162-.349.983-.144 1.592 1.202 3.345 2.537 7.36 3.872 10.544a.484.484 0 00.148.2.46.46 0 00.658-.088c.192-.386 2.634-7.585 2.778-7.585zM.193.622a1.01 1.01 0 00.048.622c.205.87-.397 10.792-.24 11.19a2.333 2.333 0 001.551.15c.24-.262.144-.51.144-.92 0-1.754.145-3.445.145-5.248.06-.671.108-1.131.108-1.541 0-.41 0-.36.096-.46.096-.1 1.672 2.735 1.828 3.046.3.61.89 1.542 1.287 2.263.601 1.131.902.36 1.046.1.349-.46 3.043-5.347 3.235-5.447.18.2.18 5.086.18 5.446 0 2.673-.3 2.934 1.335 2.823.506 0 .554-.41.506-.87V9.051a121.872 121.872 0 01-.229-6.938c0-.26.096-1.243.096-1.392A.947.947 0 0010.126.51c-.348.21-.444.671-.697.982C8.42 3.345 7.06 5.447 6.11 7.2c-.349.621-.349.41-.65 0-.649-.982-1.49-2.673-2.08-3.656L2.177 1.493A4.264 4.264 0 001.54.51C1.203.26.542.46.193.622zM63.652 6.38a3.28 3.28 0 011.47-.713 3.226 3.226 0 011.62.09c1.588.722 1.793 3.146 1.095 4.328-.297.46-.725.813-1.225 1.012-.5.198-1.046.23-1.565.094a3.547 3.547 0 01-1.395-.622V6.38zm0-1.754a36.762 36.762 0 010-4.065c0-.56-.192-.66-.697-.46-1.203.522-1.203.31-1.035 1.442.096.572 0 7.199 0 8.131 0 1.84-.252 2.263 2.333 3.034a5.39 5.39 0 002.234.012 5.484 5.484 0 002.06-.895c2.537-2.15 1.84-8.218-2.79-7.758a8.982 8.982 0 00-1.203.149c-.156.05-.746.41-.818.41h-.084zm-35.067 7.92c.188-.648.24-1.33.156-2.002-.05-.703-.05-1.41 0-2.113.144 0 .3.26.601.572.3.31 2.778 2.984 3.175 3.282a1.165 1.165 0 001.046.31c.35 0 .902 0 1.095-.248 0-.36-.698-.932-.998-1.243a19.478 19.478 0 01-1.035-1.132 21.595 21.595 0 01-2.14-2.25c0-.112 2.73-2.487 3.235-2.934.192-.212.397-.261.348-.572a3.122 3.122 0 00-1.9 0c-.24.112-1.888 1.653-2.333 2.064-.144.149-.998 1.081-1.094 1.032-.144-.473 0-6.9-.096-7.261-.096-.361-1.792.21-1.744.833.094.436.143.882.144 1.33v8.89c0 .31-.096 1.243.108 1.392.468.124.957.14 1.432.05zM15.63 8.331c.554-.149 2.406.311 2.49.82a9.529 9.529 0 010 1.655c-.349.46-2.742 1.38-3.535-.262a1.79 1.79 0 010-1.492 1.523 1.523 0 011.046-.721zm2.538-.621a4.276 4.276 0 00-1.539-.66 5.52 5.52 0 00-2.044.15 2.729 2.729 0 00-1.414.994 2.884 2.884 0 00-.564 1.667 2.89 2.89 0 00.505 1.688c.338.492.82.86 1.376 1.047a4.404 4.404 0 002.935 0c.204-.1.601-.36.745-.41.145-.05.205.36.397.46.193.1 1.095 0 1.347-.249.253-.249.3-.211.144-.572a2.65 2.65 0 01-.24-1.542V6.578a2.233 2.233 0 00-.349-1.492c-.95-1.952-6.674-1.181-6.217.473.457 1.653 1.202-.572 3.728-.261 1.359.149 1.214 1.492 1.214 2.412h-.024zm58.87-.249h-4.125a2.25 2.25 0 01.638-1.343c.39-.353.879-.566 1.395-.609.269-.023.54.01.796.098.256.088.492.228.695.412.204.173.365.395.47.646.104.25.15.524.131.796zm-4.233 1.33c.3-.149 4.81 0 5.628 0 .818 0 .445-2.772-1.046-3.904a3.918 3.918 0 00-4.281-.348 4.092 4.092 0 00-1.613 1.6 4.278 4.278 0 00-.54 2.242 4.345 4.345 0 00.497 2.189c.353.67.876 1.228 1.511 1.616 1.335.932 4.92.883 5.364-.56.553-1.852-.746-.82-1.203-.621a4.217 4.217 0 01-1.202.31c-2.658.311-3.307-2.113-3.115-2.524zM54.755 7.46a2.154 2.154 0 01.654-1.387 2.02 2.02 0 011.39-.564c1.035-.112 2.237.82 2.033 1.952h-4.077zm-.205 1.244h5.58c.65 0 .542-.41.494-.92a4.087 4.087 0 00-.604-1.942 3.912 3.912 0 00-1.453-1.38 3.757 3.757 0 00-3.812.126 4.133 4.133 0 00-1.516 1.64 4.309 4.309 0 00-.468 2.215 4.002 4.002 0 00.475 2.18 3.823 3.823 0 001.557 1.55c1.696 1.082 5.027.621 5.328-.61 0-.36.24-1.243-.301-1.031a6.511 6.511 0 01-2.105.783 2.91 2.91 0 01-1.178-.08 2.97 2.97 0 01-1.058-.542c-.433-.36-1.13-1.442-.938-1.99zm27.01 3.891c.301-.31.253-.46.253-.92v-1.243c0-1.641-.3-4.364 1.54-4.775.396-.1.493.25.998.15.297-.277.521-.628.65-1.02 0-.783-1.204-.932-2.298-.423-.349.162-.637.721-.89.771 0-.46.096-.659-.204-1.07a2.655 2.655 0 00-1.095.361c-.493.25-.589.25-.493.87.097.622 0 4.887 0 5.907.048 1.554.048 1.504 1.54 1.392zm-58.638-.049v-.1c.14-1.262.175-2.535.108-3.804 0-.982.24-2.574 1.287-2.885.841-.31.89.51 1.443 0 1.287-1.392-.445-1.952-1.491-1.492-1.047.46-.902.82-1.203.92a2.565 2.565 0 010-.609c0-.26-.108-.26-.204-.41a2.03 2.03 0 00-1.095.31c-.493.2-.65.25-.493.871.106.953.138 1.914.096 2.872v2.835c.108 1.542-.096 1.654 1.552 1.492z" fill="#221F20"/><path d="M45.35 14.2a26.38 26.38 0 00-5.82 1.43c-.59.26-1.203.41-1.792.67-1.203.46-2.333.871-3.524 1.344-.397.149-3.235 1.02-3.728 1.131-2.405.61-6.013 1.33-8.31.249-1.094-.56-1.202 1.181 1.287 1.803a9.838 9.838 0 004.377-.2c1.203-.26 2.646-.72 3.789-1.081 1.142-.36 2.489-.77 3.728-1.131.3-.112.54-.212.89-.311l1.84-.572c.348-.1.6-.249.901-.36l1.9-.46c.35-.1.602-.2.903-.312a34.934 34.934 0 017.66-.82c.638 0 1.588.161 2.237.26 1.203.15.938-.509.144-.932a12.264 12.264 0 00-6.482-.708z" fill="#F9CC46"/></g><defs><clipPath id="clip0"><path fill="#fff" d="M0 0h85v21H0z"/></clipPath></defs></svg>
